!!!OTL: 677. Das Lied vom Lieben.
!!!COM: B.
!!!ARE: Europa, Mitteleuropa, Deutschland
!!!SCT: B0677
!!!TXL: @@DE
!!!YEM: Copyright 1995, estate of Helmut Schaffrath.
**kern	**text
*ICvox	*
*Ivox	*
*clefG2	*
*M4/4	*
*met(c)	*
*k[b-e-a-]	*
*E-:	*
!LO:TX:a:t=Mäßig langsam.	!
{4b-	O
=1	=1
4.g	lieb',
8f	ſo
4e-	lang,
4f	du
=2	=2
4.d	lie-
8c	-ben
4B-}	kannſt!
{8cL	O
8dJ	.
=3	=3
4e-	lieb',
4f	ſo
4g	lang
4cc	du
=4	=4
(4cc	lie-
2b-)	.
4an	-ben
=5	=5
2b-	magſt!
4r}	.
{4b-	Die
=6	=6
4.ee-	Stun-
8b-	-de
4b-	kommt,
4bn	die
=7	=7
4.cc	Stun-
8g	-de
4g}	kommt,
{4g	wo
=8	=8
4f	du
4g	an
4a-	Grä-
4cc	-bern
=9	=9
2b-	ſtehſt
2a-	und
=10	=10
2.g;}	klagſt.
=||	=||
{4g	Und
=11	=11
8.g	ſor-
16g	-ge,
2dd	daß
4g	dein
=12	=12
8.ee-	Her-
16dd	-ʒe
2cc}	glüht
{4g	und
=13	=13
8.a-	Lie-
16a-	-be
2cc	hegt
4a-	und
=14	=14
8.g	Lie-
16g	-be
2g}	trägt,
{4g	ſo
=15	=15
8.f	lang
16g	ihm
2f	auch
4b-	ein
=16	=16
8.a-	an-
16g	-der
2g}	Herʒ
{4b-	in
=17	=17
2.ee-	Lie-
4g	-be
=18	=18
2.cc	warm
8fL	ent-
8gJ	.
=19	=19
2a-	-ge-
2d	-gen-
=20	=20
2.e-;}	-ſchlägt.
==	==
!!!AGN: Moral - Lied, Vergaenglichkeit
!!!GTL: Didaktische Lieder: Betrachtungen, Vergleiche und Moralisationen
!!!ONB: ESAC (Essen Associative Code) Database: BOEHME
!!!AMT: simple quadruple
!!!AIN: vox
!!!EED: Helmut Schaffrath
!!!EEV: 1.0
!!@@COMMENT:"Gedicht von Freiligrath, 1830 in Soeſt gedichtet, jedoch erſt im Morgenbl. 1841 (Nr. 271 v. 12. Nod. ) 
!!gedruckt. Das Original giebt denſelben Text in 10 halbſolangen Strophen."
!!@@END:
!!!Text: F. Freiligrath
!!!URL-scan: https://archive.org/details/BoehmeVtLieder1895/page/n527/mode/2up
!!!ENC: Anna Maria Matuszewska
!!!EEV: 2024/17/07
*-	*-
